; generated by PrusaSlicer 2.7.1+win64 on 2024-03-21 at 15:31:34 UTC


;
;
; 

; external perimeters extrusion width = 0.45mm
; perimeters extrusion width = 0.45mm
; infill extrusion width = 0.45mm
; solid infill extrusion width = 0.45mm
; top infill extrusion width = 0.40mm
; support material extrusion width = 0.35mm
; first layer extrusion width = 0.42mm

M73 P0 R80
M73 Q0 S82
M201 X1000 Y1000 Z200 E5000 ; sets maximum accelerations, mm/sec^2
M203 X200 Y200 Z12 E120 ; sets maximum feedrates, mm / sec
M204 S1250 T1250 ; sets acceleration (S) and retract acceleration (R), mm/sec^2
M205 X8.00 Y8.00 Z0.40 E4.50 ; sets the jerk limits, mm/sec
M205 S0 T0 ; sets the minimum extruding and travel feed rate, mm/sec

; printing object Motor Mount Offset.STL id:0 copy 0
; stop printing object Motor Mount Offset.STL id:0 copy 0

;TYPE:Custom
M862.3 P "MK3S" ; printer model check
M862.1 P0.4 ; nozzle diameter check
M115 U3.13.2 ; tell printer latest fw version
G90 ; use absolute coordinates
M83 ; extruder relative mode
M104 S215 ; set extruder temp
M140 S60 ; set bed temp
M190 S60 ; wait for bed temp
M109 S215 ; wait for extruder temp
G28 W ; home all without mesh bed level
G80 X77.9635 Y83.3414 W94.073 H38.7102 ; mesh bed levelling

G1 Z0.2 F720
G1 Y-3 F1000 ; go outside print area
G92 E0
G1 X60 E9 F1000 ; intro line
G1 X100 E12.5 F1000 ; intro line
M73 P0 R79

G92 E0
M221 S95

; Don't change E values below. Excessive value can damage the printer.

M907 E538 ; set extruder motor current
G21 ; set units to millimeters
G90 ; use absolute coordinates
M83 ; use relative distances for extrusion

M900 K0.05 ; Filament gcode LA 1.5
M900 K30 ; Filament gcode LA 1.0




M107
;LAYER_CHANGE
;Z:0.2
;HEIGHT:0.2
;BEFORE_LAYER_CHANGE
G92 E0.0
;0.2


G1 E-.8 F2100
G1 Z.2 F720
;AFTER_LAYER_CHANGE
;0.2
G1 X78.544 Y84.6 F10800
G1 Z.2 F720
G1 E.8 F2100
M204 S800
;TYPE:Skirt/Brim
;WIDTH:0.42
G1 F1200
G1 X79.589 Y83.724 E.04275
G1 X80.529 Y83.53 E.03009
G1 X169.471 Y83.53 E2.78871
G1 X170.778 Y83.922 E.04278
G1 X171.654 Y84.967 E.04275
G1 X171.848 Y85.907 E.03009
G1 X171.848 Y101.022 E.47392
G1 X171 Y102.842 E.06296
G1 X149.029 Y121.306 E.89984
G1 X147.5 Y121.863 E.05102
G1 X102.5 Y121.863 E1.41094
G1 X100.971 Y121.306 E.05102
M73 Q0 S81
G1 X79 Y102.842 E.89984
G1 X78.152 Y101.022 E.06296
G1 X78.152 Y85.907 E.47392
G1 X78.526 Y84.657 E.04091
M204 S1000
; printing object Motor Mount Offset.STL id:0 copy 0
;WIPE_START
G1 F8640
G1 X78.544 Y84.6 E-.0138
G1 X79.589 Y83.724 E-.31486
G1 X80.529 Y83.53 E-.22162
G1 X81.61 Y83.53 E-.24972
;WIPE_END
G1 Z.6 F720
G1 X169.471 Y101.022 F10800
G1 Z.2 F720
G1 E.8 F2100
M204 S800
;TYPE:Support material
G1 F1200
G1 X151.014 Y101.022 E.57871
G1 X151.014 Y103.329 E.07233
G1 X147.98 Y103.329 E.09513
G1 X147.981 Y99.367 E.12423
G1 X148.08 Y98.748 E.01965
G1 X148.08 Y90.315 E.26441
G1 X147.799 Y90.034 E.01246
G1 X138.206 Y90.034 E.30078
G1 X138.206 Y85.907 E.1294
G1 X169.471 Y85.907 E.98029
G1 X169.471 Y100.966 E.47216
M204 S1000
G1 X168.993 Y100.853 F10800
M204 S800
G1 F1200
G1 X168.993 Y86.246 E.45799
G1 X168.574 Y86.246 E.01314
G1 X168.574 Y100.683 E.45266
G1 X168.155 Y100.683 E.01314
G1 X168.155 Y86.246 E.45266
G1 X167.736 Y86.246 E.01314
G1 X167.736 Y100.683 E.45266
G1 X167.317 Y100.683 E.01314
G1 X167.317 Y86.246 E.45266
G1 X166.898 Y86.246 E.01314
G1 X166.898 Y100.683 E.45266
G1 X166.479 Y100.683 E.01314
G1 X166.479 Y86.246 E.45266
G1 X166.06 Y86.246 E.01314
G1 X166.06 Y100.683 E.45266
G1 X165.641 Y100.683 E.01314
G1 X165.641 Y86.246 E.45266
G1 X165.222 Y86.246 E.01314
G1 X165.222 Y100.683 E.45266
G1 X164.803 Y100.683 E.01314
G1 X164.803 Y86.246 E.45266
G1 X164.384 Y86.246 E.01314
G1 X164.384 Y100.683 E.45266
G1 X163.965 Y100.683 E.01314
G1 X163.965 Y86.246 E.45266
G1 X163.546 Y86.246 E.01314
G1 X163.546 Y100.683 E.45266
G1 X163.127 Y100.683 E.01314
G1 X163.127 Y86.246 E.45266
G1 X162.708 Y86.246 E.01314
G1 X162.708 Y100.683 E.45266
G1 X162.289 Y100.683 E.01314
G1 X162.289 Y86.246 E.45266
G1 X161.87 Y86.246 E.01314
G1 X161.87 Y100.683 E.45266
G1 X161.451 Y100.683 E.01314
G1 X161.451 Y86.246 E.45266
G1 X161.032 Y86.246 E.01314
G1 X161.032 Y100.683 E.45266
G1 X160.613 Y100.683 E.01314
G1 X160.613 Y86.246 E.45266
G1 X160.194 Y86.246 E.01314
G1 X160.194 Y100.683 E.45266
G1 X159.775 Y100.683 E.01314
G1 X159.775 Y86.246 E.45266
G1 X159.356 Y86.246 E.01314
G1 X159.356 Y100.683 E.45266
G1 X158.937 Y100.683 E.01314
G1 X158.937 Y86.246 E.45266
G1 X158.518 Y86.246 E.01314
G1 X158.518 Y100.683 E.45266
G1 X158.099 Y100.683 E.01314
G1 X158.099 Y86.246 E.45266
G1 X157.68 Y86.246 E.01314
G1 X157.68 Y100.683 E.45266
G1 X157.261 Y100.683 E.01314
G1 X157.261 Y86.246 E.45266
G1 X156.842 Y86.246 E.01314
G1 X156.842 Y100.683 E.45266
G1 X156.423 Y100.683 E.01314
G1 X156.423 Y86.246 E.45266
G1 X156.004 Y86.246 E.01314
M73 P1 R79
G1 X156.004 Y100.683 E.45266
G1 X155.585 Y100.683 E.01314
M73 Q1 S81
G1 X155.585 Y86.246 E.45266
G1 X155.166 Y86.246 E.01314
G1 X155.166 Y100.683 E.45266
G1 X154.747 Y100.683 E.01314
G1 X154.747 Y86.246 E.45266
G1 X154.328 Y86.246 E.01314
G1 X154.328 Y100.683 E.45266
G1 X153.909 Y100.683 E.01314
G1 X153.909 Y86.246 E.45266
G1 X153.49 Y86.246 E.01314
G1 X153.49 Y100.683 E.45266
G1 X153.071 Y100.683 E.01314
G1 X153.071 Y86.246 E.45266
G1 X152.652 Y86.246 E.01314
G1 X152.652 Y100.683 E.45266
G1 X152.234 Y100.683 E.01311
G1 X152.234 Y86.246 E.45266
G1 X151.815 Y86.246 E.01314
G1 X151.815 Y100.683 E.45266
G1 X151.396 Y100.683 E.01314
G1 X151.396 Y86.246 E.45266
G1 X150.977 Y86.246 E.01314
G1 X150.977 Y100.683 E.45266
G1 X150.675 Y100.683 E.00947
G1 X150.675 Y102.99 E.07233
G1 X150.558 Y102.99 E.00367
G1 X150.558 Y86.246 E.525
G1 X150.139 Y86.246 E.01314
G1 X150.139 Y102.99 E.525
G1 X149.72 Y102.99 E.01314
G1 X149.72 Y86.246 E.525
G1 X149.301 Y86.246 E.01314
G1 X149.301 Y102.99 E.525
G1 X148.882 Y102.99 E.01314
M73 P1 R78
G1 X148.882 Y86.246 E.525
G1 X148.463 Y86.246 E.01314
G1 X148.463 Y102.99 E.525
G1 X148.319 Y102.99 E.00452
G1 X148.32 Y99.376 E.11331
G1 X148.419 Y98.772 E.01919
G1 X148.419 Y90.175 E.26955
G1 X148.044 Y89.799 E.01665
G1 X148.044 Y86.246 E.1114
G1 X147.625 Y86.246 E.01314
G1 X147.625 Y89.695 E.10814
G1 X147.206 Y89.695 E.01314
G1 X147.206 Y86.246 E.10814
G1 X146.787 Y86.246 E.01314
G1 X146.787 Y89.695 E.10814
G1 X146.368 Y89.695 E.01314
G1 X146.368 Y86.246 E.10814
G1 X145.949 Y86.246 E.01314
G1 X145.949 Y89.695 E.10814
G1 X145.53 Y89.695 E.01314
G1 X145.53 Y86.246 E.10814
G1 X145.111 Y86.246 E.01314
G1 X145.111 Y89.695 E.10814
G1 X144.692 Y89.695 E.01314
G1 X144.692 Y86.246 E.10814
G1 X144.273 Y86.246 E.01314
G1 X144.273 Y89.695 E.10814
G1 X143.854 Y89.695 E.01314
G1 X143.854 Y86.246 E.10814
G1 X143.435 Y86.246 E.01314
G1 X143.435 Y89.695 E.10814
G1 X143.016 Y89.695 E.01314
G1 X143.016 Y86.246 E.10814
G1 X142.597 Y86.246 E.01314
G1 X142.597 Y89.695 E.10814
G1 X142.178 Y89.695 E.01314
G1 X142.178 Y86.246 E.10814
G1 X141.759 Y86.246 E.01314
G1 X141.759 Y89.695 E.10814
G1 X141.34 Y89.695 E.01314
G1 X141.34 Y86.246 E.10814
G1 X140.921 Y86.246 E.01314
G1 X140.921 Y89.695 E.10814
G1 X140.502 Y89.695 E.01314
G1 X140.502 Y86.246 E.10814
G1 X140.083 Y86.246 E.01314
G1 X140.083 Y89.695 E.10814
G1 X139.664 Y89.695 E.01314
G1 X139.664 Y86.246 E.10814
G1 X139.245 Y86.246 E.01314
G1 X139.245 Y89.695 E.10814
G1 X138.826 Y89.695 E.01314
G1 X138.826 Y86.077 E.11344
M204 S1000
;WIPE_START
G1 F8640
G1 X138.826 Y89.541 E-.8
;WIPE_END
G1 Z.6 F720
G1 X111.794 Y90.034 F10800
G1 Z.2 F720
G1 E.8 F2100
M204 S800
G1 F1200
G1 X102.201 Y90.034 E.30078
G1 X101.92 Y90.315 E.01246
G1 X101.92 Y98.748 E.26441
G1 X102.019 Y99.367 E.01965
G1 X102.02 Y103.329 E.12423
G1 X98.986 Y103.329 E.09513
G1 X98.986 Y101.022 E.07233
G1 X80.529 Y101.022 E.57871
G1 X80.529 Y85.907 E.47392
G1 X111.794 Y85.907 E.98029
G1 X111.794 Y89.978 E.12764
M204 S1000
G1 X111.174 Y89.864 F10800
M204 S800
G1 F1200
G1 X111.174 Y86.246 E.11344
G1 X110.755 Y86.246 E.01314
M73 Q1 S80
G1 X110.755 Y89.695 E.10814
G1 X110.336 Y89.695 E.01314
G1 X110.336 Y86.246 E.10814
G1 X109.917 Y86.246 E.01314
G1 X109.917 Y89.695 E.10814
G1 X109.498 Y89.695 E.01314
G1 X109.498 Y86.246 E.10814
G1 X109.079 Y86.246 E.01314
G1 X109.079 Y89.695 E.10814
G1 X108.66 Y89.695 E.01314
G1 X108.66 Y86.246 E.10814
G1 X108.241 Y86.246 E.01314
G1 X108.241 Y89.695 E.10814
G1 X107.822 Y89.695 E.01314
G1 X107.822 Y86.246 E.10814
G1 X107.403 Y86.246 E.01314
G1 X107.403 Y89.695 E.10814
G1 X106.984 Y89.695 E.01314
G1 X106.984 Y86.246 E.10814
G1 X106.565 Y86.246 E.01314
G1 X106.565 Y89.695 E.10814
G1 X106.146 Y89.695 E.01314
G1 X106.146 Y86.246 E.10814
G1 X105.727 Y86.246 E.01314
G1 X105.727 Y89.695 E.10814
G1 X105.308 Y89.695 E.01314
G1 X105.308 Y86.246 E.10814
G1 X104.889 Y86.246 E.01314
G1 X104.889 Y89.695 E.10814
G1 X104.47 Y89.695 E.01314
G1 X104.47 Y86.246 E.10814
G1 X104.051 Y86.246 E.01314
G1 X104.051 Y89.695 E.10814
G1 X103.632 Y89.695 E.01314
G1 X103.632 Y86.246 E.10814
G1 X103.213 Y86.246 E.01314
G1 X103.213 Y89.695 E.10814
G1 X102.886 Y89.695 E.01025
G1 X102.794 Y89.695 E.00288
G1 X102.794 Y86.246 E.10814
G1 X102.375 Y86.246 E.01314
G1 X102.375 Y89.695 E.10814
G1 X102.061 Y89.695 E.00985
G1 X101.956 Y89.799 E.00463
G1 X101.956 Y86.246 E.1114
G1 X101.537 Y86.246 E.01314
G1 X101.537 Y102.99 E.525
G1 X101.118 Y102.99 E.01314
G1 X101.118 Y86.246 E.525
G1 X100.699 Y86.246 E.01314
G1 X100.699 Y102.99 E.525
G1 X100.28 Y102.99 E.01314
G1 X100.28 Y86.246 E.525
G1 X99.861 Y86.246 E.01314
G1 X99.861 Y102.99 E.525
G1 X99.442 Y102.99 E.01314
G1 X99.442 Y86.246 E.525
G1 X99.023 Y86.246 E.01314
G1 X99.023 Y100.683 E.45266
G1 X98.604 Y100.683 E.01314
G1 X98.604 Y86.246 E.45266
G1 X98.185 Y86.246 E.01314
G1 X98.185 Y100.683 E.45266
G1 X97.766 Y100.683 E.01314
G1 X97.766 Y86.246 E.45266
G1 X97.348 Y86.246 E.01311
G1 X97.348 Y100.683 E.45266
G1 X96.929 Y100.683 E.01314
G1 X96.929 Y86.246 E.45266
G1 X96.51 Y86.246 E.01314
G1 X96.51 Y100.683 E.45266
G1 X96.091 Y100.683 E.01314
G1 X96.091 Y86.246 E.45266
G1 X95.672 Y86.246 E.01314
G1 X95.672 Y100.683 E.45266
G1 X95.253 Y100.683 E.01314
G1 X95.253 Y86.246 E.45266
G1 X94.834 Y86.246 E.01314
G1 X94.834 Y100.683 E.45266
G1 X94.415 Y100.683 E.01314
G1 X94.415 Y86.246 E.45266
G1 X93.996 Y86.246 E.01314
G1 X93.996 Y100.683 E.45266
G1 X93.577 Y100.683 E.01314
G1 X93.577 Y86.246 E.45266
G1 X93.158 Y86.246 E.01314
G1 X93.158 Y100.683 E.45266
G1 X92.739 Y100.683 E.01314
M73 P2 R78
G1 X92.739 Y86.246 E.45266
G1 X92.32 Y86.246 E.01314
G1 X92.32 Y100.683 E.45266
G1 X91.901 Y100.683 E.01314
G1 X91.901 Y86.246 E.45266
G1 X91.482 Y86.246 E.01314
M73 Q2 S80
G1 X91.482 Y100.683 E.45266
G1 X91.063 Y100.683 E.01314
G1 X91.063 Y86.246 E.45266
G1 X90.644 Y86.246 E.01314
G1 X90.644 Y100.683 E.45266
G1 X90.225 Y100.683 E.01314
G1 X90.225 Y86.246 E.45266
G1 X89.806 Y86.246 E.01314
G1 X89.806 Y100.683 E.45266
G1 X89.387 Y100.683 E.01314
G1 X89.387 Y86.246 E.45266
G1 X88.968 Y86.246 E.01314
G1 X88.968 Y100.683 E.45266
G1 X88.549 Y100.683 E.01314
G1 X88.549 Y86.246 E.45266
G1 X88.13 Y86.246 E.01314
G1 X88.13 Y100.683 E.45266
G1 X87.711 Y100.683 E.01314
G1 X87.711 Y86.246 E.45266
G1 X87.292 Y86.246 E.01314
G1 X87.292 Y100.683 E.45266
G1 X86.873 Y100.683 E.01314
G1 X86.873 Y86.246 E.45266
G1 X86.454 Y86.246 E.01314
G1 X86.454 Y100.683 E.45266
G1 X86.035 Y100.683 E.01314
G1 X86.035 Y86.246 E.45266
G1 X85.616 Y86.246 E.01314
G1 X85.616 Y100.683 E.45266
G1 X85.197 Y100.683 E.01314
G1 X85.197 Y86.246 E.45266
G1 X84.778 Y86.246 E.01314
G1 X84.778 Y100.683 E.45266
G1 X84.359 Y100.683 E.01314
G1 X84.359 Y86.246 E.45266
G1 X83.94 Y86.246 E.01314
G1 X83.94 Y100.683 E.45266
G1 X83.521 Y100.683 E.01314
G1 X83.521 Y86.246 E.45266
G1 X83.102 Y86.246 E.01314
G1 X83.102 Y100.683 E.45266
G1 X82.683 Y100.683 E.01314
G1 X82.683 Y86.246 E.45266
G1 X82.264 Y86.246 E.01314
G1 X82.264 Y100.683 E.45266
G1 X81.845 Y100.683 E.01314
G1 X81.845 Y86.246 E.45266
G1 X81.426 Y86.246 E.01314
G1 X81.426 Y100.683 E.45266
G1 X81.007 Y100.683 E.01314
G1 X81.007 Y86.077 E.45796
M204 S1000
;WIPE_START
G1 F8640
G1 X81.007 Y89.542 E-.8
;WIPE_END
G1 Z.6 F720
G1 X145.959 Y117.945 F10800
G1 Z.2 F720
G1 E.8 F2100
M204 S800
;TYPE:Perimeter
;WIDTH:0.419999
G1 F1200
G1 X104.041 Y117.945 E1.31431
G1 X104.038 Y99.326 E.58378
M73 P2 R77
G1 X103.941 Y98.548 E.02458
G1 X103.941 Y92.055 E.20358
G1 X146.059 Y92.055 E1.32058
G1 X146.059 Y98.007 E.18662
G1 X146.059 Y98.321 E.00985
G1 X145.959 Y99.418 E.03454
G1 X145.959 Y117.885 E.57902
M204 S1000
G1 X146.336 Y118.322 F10800
M204 S800
G1 F1200
G1 X103.664 Y118.322 E1.33795
G1 X103.664 Y99.674 E.58469
G1 X103.635 Y98.97 E.02209
G1 X103.564 Y98.587 E.01221
G1 X103.564 Y91.678 E.21663
G1 X146.436 Y91.678 E1.34422
G1 X146.436 Y98.007 E.19844
G1 X146.436 Y98.588 E.01822
G1 X146.372 Y98.906 E.01017
G1 X146.336 Y99.418 E.01609
G1 X146.336 Y118.262 E.59084
M204 S1000
G1 X146.713 Y118.699 F10800
M204 S800
G1 F1200
G1 X103.287 Y118.699 E1.36159
G1 X103.287 Y99.674 E.59651
M73 Q2 S79
G1 X103.259 Y98.996 E.02128
G1 X103.187 Y98.626 E.01182
G1 X103.187 Y91.301 E.22967
G1 X146.813 Y91.301 E1.36786
G1 X146.813 Y98.007 E.21026
G1 X146.813 Y98.626 E.01941
G1 X146.751 Y98.925 E.00957
G1 X146.713 Y99.418 E.0155
G1 X146.713 Y118.639 E.60266
M204 S1000
G1 X147.09 Y119.076 F10800
M204 S800
;TYPE:External perimeter
G1 F1200
G1 X102.91 Y119.076 E1.38523
G1 X102.91 Y99.674 E.60834
G1 X102.883 Y99.023 E.02043
G1 X102.81 Y98.665 E.01146
G1 X102.81 Y90.924 E.24271
G1 X147.19 Y90.924 E1.3915
G1 X147.19 Y98.007 E.22208
M73 P3 R77
G1 X147.19 Y98.665 E.02063
G1 X147.12 Y99.002 E.01079
G1 X147.09 Y99.418 E.01308
G1 X147.09 Y119.016 E.61448
M204 S1000
;WIPE_START
G1 F8640
M73 Q3 S79
G1 X147.09 Y119.076 E-.01385
G1 X143.685 Y119.076 E-.78615
;WIPE_END
G1 Z.6 F720
G1 X134.57 Y116.904 F10800
G1 Z.2 F720
G1 E.8 F2100
M204 S800
;TYPE:Perimeter
G1 F1200
G1 X134.181 Y116.965 E.01235
G1 X133.547 Y116.936 E.0199
G1 X132.962 Y116.79 E.0189
G1 X132.426 Y116.539 E.01856
G1 X131.948 Y116.189 E.01858
G1 X131.545 Y115.755 E.01857
G1 X131.215 Y115.214 E.01987
G1 X131.008 Y114.647 E.01893
G1 X130.918 Y114.065 E.01847
G1 X130.946 Y113.429 E.01996
G1 X131.092 Y112.844 E.0189
G1 X131.344 Y112.308 E.01857
G1 X131.693 Y111.83 E.01856
G1 X132.161 Y111.402 E.01988
G1 X132.678 Y111.091 E.01892
G1 X133.235 Y110.89 E.01857
G1 X133.82 Y110.799 E.01856
G1 X134.386 Y110.82 E.01776
G1 X134.988 Y110.956 E.01935
G1 X135.564 Y111.22 E.01987
G1 X136.052 Y111.575 E.01892
G1 X136.48 Y112.043 E.01988
G1 X136.791 Y112.56 E.01892
G1 X136.992 Y113.117 E.01857
G1 X137.083 Y113.702 E.01856
G1 X137.06 Y114.293 E.01854
G1 X136.926 Y114.87 E.01857
G1 X136.662 Y115.446 E.01987
G1 X136.307 Y115.934 E.01892
G1 X135.839 Y116.362 E.01988
G1 X135.322 Y116.673 E.01892
G1 X134.766 Y116.873 E.01853
G1 X134.629 Y116.895 E.00435
M204 S1000
G1 X134.506 Y116.536 F10800
M204 S800
G1 F1200
G1 X134.138 Y116.59 E.01166
G1 X133.58 Y116.56 E.01752
G1 X133.069 Y116.429 E.01654
G1 X132.6 Y116.204 E.01631
G1 X132.183 Y115.894 E.01629
G1 X131.832 Y115.51 E.01631
G1 X131.545 Y115.031 E.01751
G1 X131.368 Y114.534 E.01654
G1 X131.292 Y114.023 E.0162
G1 X131.322 Y113.462 E.01761
G1 X131.454 Y112.951 E.01655
G1 X131.678 Y112.482 E.0163
G1 X131.988 Y112.065 E.01629
G1 X132.403 Y111.691 E.01752
G1 X132.858 Y111.423 E.01656
G1 X133.348 Y111.25 E.01629
G1 X133.862 Y111.174 E.01629
G1 X134.382 Y111.198 E.01632
G1 X134.887 Y111.32 E.01629
G1 X135.393 Y111.556 E.01751
G1 X135.818 Y111.87 E.01657
G1 X136.191 Y112.285 E.0175
G1 X136.459 Y112.74 E.01656
G1 X136.632 Y113.23 E.01629
G1 X136.708 Y113.744 E.01629
G1 X136.684 Y114.264 E.01632
G1 X136.562 Y114.769 E.01629
G1 X136.326 Y115.275 E.01751
G1 X136.012 Y115.7 E.01657
G1 X135.597 Y116.073 E.0175
G1 X135.142 Y116.341 E.01656
G1 X134.653 Y116.514 E.01626
G1 X134.565 Y116.527 E.00279
M204 S1000
G1 X134.488 Y116.161 F10800
M204 S800
G1 F1200
G1 X134.433 Y116.177 E.0018
G1 X133.982 Y116.217 E.0142
G1 X133.501 Y116.163 E.01518
G1 X133.075 Y116.026 E.01403
G1 X132.683 Y115.811 E.01402
G1 X132.339 Y115.524 E.01405
G1 X132.054 Y115.172 E.0142
G1 X131.83 Y114.744 E.01515
G1 X131.728 Y114.42 E.01065
G1 X131.663 Y113.923 E.01572
